X:330
T: Din Tarrant's #4
S: "Johnny O'Leary of Sliabh Luachra" (#280)
Z: B.Black
N: a/k/a "Scartaglen", "Knocknaboul"
L: 1/8
M: 2/4
Q: 270
R: polka
K: G
G/A/G/F/ GA|Bd de/f/|GB B/A/G/A/|BA AB/A/|
G>F GA|Bd de/f/|GB AB/A/|1 G2 GD :|2 G2 G2||
Bd gf/g/|fe e/f/g/e/|dB B/A/G/A/|BA B/A/G/A/|
Bd gf/g/|fe e/f/g/e/|dB AB/A/|1 G2 G2 :|2 G2 gd||
g2 a2|b2 bd/a/|gf/g/ ag/a/|ba ba|
ga/g/ e/f/g/e/|dB g>e|dB AB/A/|G2-G(3d/e/f/|
g2 ag/a/|b2 ba|gf/g/ ag/a/|ba ba|
g/a/b/g/ e/f/g/e/|dB g>e|dB A/A/B/A/|G2 B>A||
